X: 25188
T: Majora's Mask: Clock Town Day 1
R: slide
M: 12/8
K: Dmajor
|:D2d cBA B3 G3|A2E AGE G2A2<F2|
D2d cBA B3 G3|1 ) AGE G2F D5:|2 ) AGE FGED6||
|:d2d dcd e3 A3|gfg f2d e2c2<A2|
d2d dcd e3 A3|gfg f2c d6:|
B6 A4z2|G6 F4z2|B6 .A2z1 .G2z1|F6 E4z2|
B6 A2z4|d6 c2z4|c6 =c6|B6- B6||

